X: 1
T: le Canal en Octobre
C: Fr\'ederic Paris
R: shottish
Z: 2016 John Chambers <jc:trillian.mit.edu>
S: handout at NEFFA 2016 from Mark Vidor p.10
M: C
L: 1/8
K: G
DGA |\
"G"B3B cBAG | B3B cBAG | "C"EFGB A3G | "D"FGEF D2GA |\
"G"B3B cBAG | B3B cBAG | "Em"EFGB "D"A3G | "G"G2-G3 :|
ABc |:\
"G"d3c cBAG | d3c cBAG | "C"EFGB A3G | "D"FGEF D2Bc |\
"G"d3c cBAG | d3c cBAG | "Em"EFGB "D"A3G |1 "G"G4 BGcG :|2 "G"G2-G3 |]
